svg/shield_lock_outline.svg

<svg xmlns="http://www.w3.org/2000/svg" viewBox="0 0 24 24"><path d="M21 11c0 5.55-3.84 10.74-9 12-5.16-1.26-9-6.45-9-12V5l9-4 9 4zm-9 10c3.75-1 7-5.46 7-9.78V6.3l-7-3.12L5 6.3v4.92C5 15.54 8.25 20 12 21m2.8-10V9.5C14.8 8.1 13.4 7 12 7S9.2 8.1 9.2 9.5V11c-.6 0-1.2.6-1.2 1.2v3.5c0 .7.6 1.3 1.2 1.3h5.5c.7 0 1.3-.6 1.3-1.2v-3.5c0-.7-.6-1.3-1.2-1.3m-1.3 0h-3V9.5c0-.8.7-1.3 1.5-1.3s1.5.5 1.5 1.3z"/></svg>

<?xml version="1.0" encoding="UTF-8"?><!DOCTYPE svg PUBLIC "-//W3C//DTD SVG 1.1//EN" "http://www.w3.org/Graphics/SVG/1.1/DTD/svg11.dtd"><svg xmlns="http://www.w3.org/2000/svg" xmlns:xlink="http://www.w3.org/1999/xlink" version="1.1" id="mdi-shield-lock-outline" width="24" height="24" viewBox="0 0 24 24"><path d="M21,11C21,16.55 17.16,21.74 12,23C6.84,21.74 3,16.55 3,11V5L12,1L21,5V11M12,21C15.75,20 19,15.54 19,11.22V6.3L12,3.18L5,6.3V11.22C5,15.54 8.25,20 12,21M14.8,11V9.5C14.8,8.1 13.4,7 12,7C10.6,7 9.2,8.1 9.2,9.5V11C8.6,11 8,11.6 8,12.2V15.7C8,16.4 8.6,17 9.2,17H14.7C15.4,17 16,16.4 16,15.8V12.3C16,11.6 15.4,11 14.8,11M13.5,11H10.5V9.5C10.5,8.7 11.2,8.2 12,8.2C12.8,8.2 13.5,8.7 13.5,9.5V11Z" /></svg>
